X: 18
T: No_114_I_Am_Running_Toward_the_Edge_of_the_World.krn
N: Derived from No_114_I_Am_Running_Toward_the_Edge_of_the_World.krn
%%abc-version 2.0
%%abcx-abcm2ps-target-version 5.9.1 (29 Sep 2008)
%%abc-creator hum2abc beta
%%abcx-conversion-date 2019/03/15 08:37:56
%%humdrum-veritas 2716526656
%%humdrum-veritas-data 2101043703
%%linebreak <none>
%%barnumbers 0
L: 1/8
M: 2/4
K: G clef=bass
G, [I:setbarnb 1]| 
G,3/D/ D3/B,/ | 
!fermata!A,2A,3/D/ | 
(3DA,B, (3A,G,G, | 
(3G,E,G, (3G,E,D, | 
D,2D,2 | 
!fermata!C2A,3/E,/ | 
(3G,G,G, G,3/E,/ | 
G,/G,A,/E,2 | 
D,2D,2 | 
!fermata!C2A,3/E,/ ||  
[M:3/4](3G,G,G, G,3/E,/ (A,3/E,/) | 
(3G,G,G, G,G,/G,/!fermata!E,2 ||  
[M:2/4]D,2D,2 | 
!fermata!A,2G,3/E,/ | 
(3G,G,G, G,3/E,/ | 
(3G,G,G, G,3/G,/ |]  



